euroheater.ru/images/icons/none-menu.svg

<svg width="30" height="30" viewBox="0 0 30 30" fill="none" xmlns="http://www.w3.org/2000/svg">
<g clip-path="url(#clip0_339_2407)">
<path d="M10.4716 15C5.91959 10.2832 3.27148 5.19991 2.28492 1.19285C2.05992 0.254058 2.97724 -0.432902 3.46186 0.322714C7.37346 6.39055 13.5 7.5 15.387 13.3743C15.8717 13.7407 15.8703 16.2604 15.387 16.6257C12 21.75 7.37346 23.6094 3.46186 29.6773C2.97724 30.4329 2.05992 29.746 2.28492 28.8072C3.27148 24.8001 5.91959 19.7169 10.4716 15Z" fill="#F7F4F3"/>
<path d="M18.7784 15C23.3304 10.2832 25.9785 5.19991 26.9651 1.19285C27.1901 0.254058 26.2728 -0.432902 25.7881 0.322714C21.8765 6.39055 15.75 7.5 13.863 13.3743C13.3783 13.7407 13.3797 16.2604 13.863 16.6257C17.25 21.75 21.8765 23.6094 25.7881 29.6773C26.2728 30.4329 27.1901 29.746 26.9651 28.8072C25.9785 24.8001 23.3304 19.7169 18.7784 15Z" fill="#F7F4F3"/>
</g>
<defs>
<clipPath id="clip0_339_2407">
<rect width="30" height="30" fill="white"/>
</clipPath>
</defs>
</svg>

<svg width="30" height="30" fill="none" xmlns="http://www.w3.org/2000/svg"><g clip-path="url(#clip0_339_2407)" fill="#F7F4F3"><path d="M10.472 15c-4.552-4.717-7.2-9.8-8.187-13.807-.225-.939.692-1.626 1.177-.87C7.373 6.39 13.5 7.5 15.387 13.374c.485.367.483 2.886 0 3.252C12 21.75 7.373 23.609 3.462 29.677c-.485.756-1.402.069-1.177-.87C3.27 24.8 5.92 19.717 10.472 15z"/><path d="M18.778 15c4.552-4.717 7.2-9.8 8.187-13.807.225-.939-.692-1.626-1.177-.87C21.876 6.39 15.75 7.5 13.863 13.374c-.485.367-.483 2.886 0 3.252 3.387 5.124 8.014 6.983 11.925 13.051.485.756 1.402.069 1.177-.87C25.98 24.8 23.33 19.717 18.778 15z"/></g><defs><clipPath id="clip0_339_2407"><path fill="#fff" d="M0 0h30v30H0z"/></clipPath></defs></svg>
